src/assets/tokens/BNB.svg

<svg width="24" height="24" viewBox="0 0 24 24" fill="none" xmlns="http://www.w3.org/2000/svg">
    <circle cx="12" cy="12" r="12" fill="#F1B90C" />
    <path
        d="M7.31625 5.757L12.0938 3L16.8713 5.757L15.1149 6.77569L12.0938 5.037L9.07256 6.77569L7.31606 5.757H7.31625ZM16.8713 9.23438L15.1149 8.21588L12.0938 9.95419L9.07256 8.21569L7.31606 9.23419V11.2712L10.3373 13.0097V16.4869L12.0938 17.5054L13.8503 16.4869V13.0097L16.8714 11.2712V9.23438H16.8713ZM16.8713 14.7486V12.7112L15.1149 13.7297V15.7669L16.8714 14.7484L16.8713 14.7486ZM18.1185 15.4686L15.0975 17.2069V19.2439L19.875 16.4869V10.9725L18.1185 11.991V15.4682V15.4686ZM16.362 7.49588L18.1185 8.51437V10.5514L19.875 9.53269V7.49569L18.1185 6.477L16.362 7.49569V7.49588ZM10.3373 17.9443V19.9815L12.0938 21L13.8503 19.9815V17.9443L12.0938 18.963L10.3373 17.9443ZM7.31625 14.7484L9.07275 15.7669V13.7297L7.31625 12.7112V14.7484V14.7484ZM10.3374 7.49569L12.0939 8.51419L13.8504 7.49569L12.0939 6.477L10.3374 7.49569ZM6.06919 8.51419L7.82569 7.49569L6.06919 6.477L4.3125 7.49569V9.5325L6.069 10.551V8.51437L6.06919 8.51419ZM6.06919 11.9912L4.3125 10.9727V16.4869L9.09 19.2439V17.2069L6.069 15.4684V11.9912H6.06919Z"
        fill="white" />
</svg>

<svg fill="none" height="24" width="24" xmlns="http://www.w3.org/2000/svg"><circle cx="12" cy="12" fill="#f1b90c" r="12"/><path d="M7.316 5.757L12.094 3l4.777 2.757-1.756 1.019-3.021-1.739-3.021 1.739zm9.555 3.477l-1.756-1.018-3.021 1.738-3.021-1.738-1.757 1.018v2.037l3.021 1.739v3.477l1.757 1.018 1.756-1.018V13.01l3.021-1.739zm0 5.515V12.71l-1.756 1.019v2.037l1.756-1.019zm1.248.72l-3.021 1.738v2.037l4.777-2.757v-5.514l-1.756 1.018v3.477zm-1.757-7.973l1.757 1.018v2.037l1.756-1.018V7.496l-1.756-1.019zm-6.025 10.448v2.038L12.094 21l1.756-1.018v-2.038l-1.756 1.019zm-3.02-3.196l1.756 1.019V13.73l-1.757-1.02v2.037zm3.02-7.252l1.757 1.018 1.756-1.018-1.756-1.019zM6.07 8.514l1.757-1.018L6.07 6.477 4.314 7.496v2.037l1.756 1.018zm0 3.477l-1.756-1.018v5.514l4.777 2.757v-2.037L6.07 15.468z" fill="#fff"/></svg>
